themes/mukurtu_v4/images/instagram.svg

<svg xmlns="http://www.w3.org/2000/svg" viewBox="0 0 24 24" fill="#cccccc"><path d="M13.0281 2.00073C14.1535 2.00259 14.7238 2.00855 15.2166 2.02322L15.4107 2.02956C15.6349 2.03753 15.8561 2.04753 16.1228 2.06003C17.1869 2.1092 17.9128 2.27753 18.5503 2.52503C19.2094 2.7792 19.7661 3.12253 20.3219 3.67837C20.8769 4.2342 21.2203 4.79253 21.4753 5.45003C21.7219 6.0867 21.8903 6.81337 21.9403 7.87753C21.9522 8.1442 21.9618 8.3654 21.9697 8.58964L21.976 8.78373C21.9906 9.27647 21.9973 9.84686 21.9994 10.9723L22.0002 11.7179C22.0003 11.809 22.0003 11.903 22.0003 12L22.0002 12.2821L21.9996 13.0278C21.9977 14.1532 21.9918 14.7236 21.9771 15.2163L21.9707 15.4104C21.9628 15.6347 21.9528 15.8559 21.9403 16.1225C21.8911 17.1867 21.7219 17.9125 21.4753 18.55C21.2211 19.2092 20.8769 19.7659 20.3219 20.3217C19.7661 20.8767 19.2069 21.22 18.5503 21.475C17.9128 21.7217 17.1869 21.89 16.1228 21.94C15.8561 21.9519 15.6349 21.9616 15.4107 21.9694L15.2166 21.9757C14.7238 21.9904 14.1535 21.997 13.0281 21.9992L12.2824 22C12.1913 22 12.0973 22 12.0003 22L11.7182 22L10.9725 21.9993C9.8471 21.9975 9.27672 21.9915 8.78397 21.9768L8.58989 21.9705C8.36564 21.9625 8.14444 21.9525 7.87778 21.94C6.81361 21.8909 6.08861 21.7217 5.45028 21.475C4.79194 21.2209 4.23444 20.8767 3.67861 20.3217C3.12278 19.7659 2.78028 19.2067 2.52528 18.55C2.27778 17.9125 2.11028 17.1867 2.06028 16.1225C2.0484 15.8559 2.03871 15.6347 2.03086 15.4104L2.02457 15.2163C2.00994 14.7236 2.00327 14.1532 2.00111 13.0278L2.00098 10.9723C2.00284 9.84686 2.00879 9.27647 2.02346 8.78373L2.02981 8.58964C2.03778 8.3654 2.04778 8.1442 2.06028 7.87753C2.10944 6.81253 2.27778 6.08753 2.52528 5.45003C2.77944 4.7917 3.12278 4.2342 3.67861 3.67837C4.23444 3.12253 4.79278 2.78003 5.45028 2.52503C6.08778 2.27753 6.81278 2.11003 7.87778 2.06003C8.14444 2.04816 8.36564 2.03847 8.58989 2.03062L8.78397 2.02433C9.27672 2.00969 9.8471 2.00302 10.9725 2.00086L13.0281 2.00073ZM12.0003 7.00003C9.23738 7.00003 7.00028 9.23956 7.00028 12C7.00028 14.7629 9.23981 17 12.0003 17C14.7632 17 17.0003 14.7605 17.0003 12C17.0003 9.23713 14.7607 7.00003 12.0003 7.00003ZM12.0003 9.00003C13.6572 9.00003 15.0003 10.3427 15.0003 12C15.0003 13.6569 13.6576 15 12.0003 15C10.3434 15 9.00028 13.6574 9.00028 12C9.00028 10.3431 10.3429 9.00003 12.0003 9.00003ZM17.2503 5.50003C16.561 5.50003 16.0003 6.05994 16.0003 6.74918C16.0003 7.43843 16.5602 7.9992 17.2503 7.9992C17.9395 7.9992 18.5003 7.4393 18.5003 6.74918C18.5003 6.05994 17.9386 5.49917 17.2503 5.50003Z"></path></svg>

<svg xmlns="http://www.w3.org/2000/svg" fill="#ccc" viewBox="0 0 24 24" aria-hidden="true"><path d="M13.028 2c1.125.003 1.696.009 2.189.023l.194.007c.224.008.445.018.712.03 1.064.05 1.79.218 2.427.465.66.254 1.216.598 1.772 1.153a4.9 4.9 0 0 1 1.153 1.772c.247.637.415 1.363.465 2.428.012.266.022.487.03.712l.006.194c.015.492.021 1.063.023 2.188l.001.746v1.31a79 79 0 0 1-.023 2.188l-.006.194c-.008.225-.018.446-.03.712-.05 1.065-.22 1.79-.466 2.428a4.9 4.9 0 0 1-1.153 1.772 4.9 4.9 0 0 1-1.772 1.153c-.637.247-1.363.415-2.427.465l-.712.03-.194.006c-.493.014-1.064.021-2.189.023l-.746.001h-1.309a78 78 0 0 1-2.189-.023l-.194-.006a63 63 0 0 1-.712-.031c-1.064-.05-1.79-.218-2.428-.465a4.9 4.9 0 0 1-1.771-1.153 4.9 4.9 0 0 1-1.154-1.772c-.247-.637-.415-1.363-.465-2.428l-.03-.712-.005-.194A79 79 0 0 1 2 13.028v-2.056a79 79 0 0 1 .022-2.188l.007-.194c.008-.225.018-.446.03-.712.05-1.065.218-1.79.465-2.428A4.9 4.9 0 0 1 3.68 3.678 4.9 4.9 0 0 1 5.45 2.525c.638-.247 1.363-.415 2.428-.465.266-.012.488-.022.712-.03l.194-.006a79 79 0 0 1 2.188-.023zM12 7a5 5 0 1 0 0 10 5 5 0 0 0 0-10m0 2a3 3 0 1 1 .001 6 3 3 0 0 1 0-6m5.25-3.5a1.25 1.25 0 0 0 0 2.5 1.25 1.25 0 0 0 0-2.5"/></svg>
